X:1
T:Giura il nocchier
T:Giura il nocchier
T:Ludvig van Beethoven
T:(Vertonung in B-dur)
C:Ludvig van Beethoven
%%score [ 1 2 3 4 ]
L:1/8
Q:1/4=60
M:2/4
K:Bb
V:1 treble nm="Soprano" snm="S."
V:2 treble nm="Alto" snm="A."
V:3 treble-8 nm="Tenor" snm="T."
V:4 bass nm="Bass" snm="B."
V:1
 B2 B3/2 B/ | d2- d/B/ G/F/ | =E F z A | G3/2 G/ c3/2 c/ | c F z F/G/ | A/B/ c/d/ e e | %6
w: Giu- ra~il noc-|chier * * che~al ma-|re non non|pre- ste- rà più|fe- de, ma *|se * tran- * quil- lo~il|
 e d c/d/ e/c/ | B/c/ d/ B/ A/B/ c/A/ | f2 e/f/ g/e/ | d/e/ f/ d/ c/d/ e/c/ | B2 z d | %11
w: ve- de cor- * re, *|cor- * re di nuo- * vo~al *|mar, cor- * re, *|cor- * re di nuo- * vo~al *|mar. Di|
 d3/2 d/ d3/2 d/ | d D z2 | e2 e3/2 e/ | e2- e/d/ c/B/ | A F z F | B/F/ D/F/ B/F/ B/d/ | %17
w: non trat- tar più|l`ar- mi|giu- ra~il guer-|rier * * tal *|vol- ta, ma|se~u- * na * trom- * ba~a- *|
 f/d/ B z d/B/ | G e/c/ A f/e/ | d f/e/ d/c/ B/A/ | G/F/ G/A/ B/c/ d/e/ | f2 F2 | B2 !fermata!z2 |] %23
w: scol- * ta, già- *|non si * può fre- *|nar, già * non * si *|può, * già * non * si *|può fre-|nar.|
V:2
 D2 D3/2 D/ | D3 D | C C z F | F3/2 F/ =E3/2 E/ | =E F z2 | F/G/ A/ B/ c c | c B G2 | F F F F | %8
w: Giu- ra~il noc-|chier che~al|ma- re non|pre- ste- rà più|fe- de,|ma * se tran- quil- lo~il|ve- de cor-|re di nuo- vo~al|
 B2 G2 | F F E E | D2 z d | d3/2 d/ d3/2 d/ | d D z2 | e2 e3/2 e/ | e2- e/d/ c/B/ | A F z2 | %16
w: mar, cor-|re di nuo- vo~al|mar. Di|non trat- tar più|l`ar- mi|giu- ra~il guer-|rier * * tal *|vol- ta,|
 F F3/4 F/4 F F | F F z F | G G A A | B F F F | F F F B | B2 A2 | B2 !fermata!z2 |] %23
w: ma se~u- na trom- ba~a-|scol- ta, già-|non si può fre-|nar, già non si|può, già non si|può fre-|nar.|
V:3
 F2 F3/2 F/ | B3 B | G A z c | d3/2 d/ c3/2 B/ | B A z2 | e/d/ c/ B/ A A | A B e2 | d d c c | %8
w: Giu- ra~il noc-|chier che~al|ma- re non|pre- ste- rà più|fe- de,|ma * se tran- quil- lo~il|ve- de cor-|re di nuo- vo~al|
 d2 B2 | B B A A | B2 z d | d3/2 d/ d3/2 d/ | d D z2 | e2 e3/2 e/ | e2- e/d/ c/B/ | A F z2 | %16
w: mar, cor-|re di nuo- vo~al|mar. Di|non trat- tar più|l`ar- mi|giu- ra~il guer-|rier * * tal *|vol- ta,|
 d d3/4 d/4 d d | d d z B | B c c c | d f/e/ d/c/ B/A/ | G/F/ G/A/ B/c/ d/B/ | d2 c2 | %22
w: ma se~u- na trom- ba~a-|scol- ta, già-|non si può fre-|nar, già * non * si *|può, * già * non * si *|può fre-|
 B2 !fermata!z2 |] %23
w: nar.|
V:4
 B,,2 B,,3/2 B,,/ | B,,3 B,, | B,, A,, z A,, | B,,3/2 B,,/ C,3/2 C,/ | C, F, z2 | %5
w: Giu- ra~il noc-|chier che~al|ma- re non|pre- ste- rà più|fe- de,|
 F, F,/ F,/ F, F, | F, G, E,2 | F, F, E, E, | D,2 E,2 | F, F, F, F, | B,,2 z D | D3/2 D/ D3/2 D/ | %12
w: ma se tran- quil- lo~il|ve- de cor-|re di nuo- vo~al|mar, cor-|re di nuo- vo~al|mar. Di|non trat- tar più|
 D D, z2 | E2 E3/2 E/ | E2- E/D/ C/B,/ | A, F, z2 | B, B,3/4 B,/4 B, B, | B, B, z D, | %18
w: l`ar- mi|giu- ra~il guer-|rier * * tal *|vol- ta,|ma se~u- na trom- ba~a-|scol- ta, già-|
 E, E, F, F, | B, D/C/ B,/A,/ G,/F,/ | E,/D,/ E,/F,/ G,/A,/ B,/G,/ | F,2 F,2 | B,,2 !fermata!z2 |] %23
w: non si può fre-|nar, già * non * si *|può, * già * non * si *|può fre-|nar.|

